images-source/features/elearning.svg

<?xml version="1.0" encoding="UTF-8"?>
<svg width="70px" height="61px" viewBox="0 0 70 61" version="1.1" xmlns="http://www.w3.org/2000/svg" xmlns:xlink="http://www.w3.org/1999/xlink">
    <!-- Generator: Sketch 48.2 (47327) - http://www.bohemiancoding.com/sketch -->
    <title>elearning</title>
    <desc>Created with Sketch.</desc>
    <defs></defs>
    <g id="platform" stroke="none" stroke-width="1" fill="none" fill-rule="evenodd" transform="translate(-446.000000, -803.000000)">
        <g id="how-is-works" transform="translate(-80.000000, 645.000000)">
            <g id="Group-2" transform="translate(526.000000, 143.000000)">
                <g id="elearning" transform="translate(0.000000, 15.000000)">
                    <path d="M65.3333333,36.1666667 L65.3333333,5.83333333 C65.3333333,5.51736111 65.2178819,5.24392361 64.9869792,5.01302083 C64.7560764,4.78211806 64.4826389,4.66666667 64.1666667,4.66666667 L5.83333333,4.66666667 C5.51736111,4.66666667 5.24392361,4.78211806 5.01302083,5.01302083 C4.78211806,5.24392361 4.66666667,5.51736111 4.66666667,5.83333333 L4.66666667,36.1666667 C4.66666667,36.4826389 4.78211806,36.7560764 5.01302083,36.9869792 C5.24392361,37.2178819 5.51736111,37.3333333 5.83333333,37.3333333 L64.1666667,37.3333333 C64.4826389,37.3333333 64.7560764,37.2178819 64.9869792,36.9869792 C65.2178819,36.7560764 65.3333333,36.4826389 65.3333333,36.1666667 Z M70,5.83333333 L70,45.5 C70,47.1041667 69.4288194,48.4774306 68.2864583,49.6197917 C67.1440972,50.7621528 65.7708333,51.3333333 64.1666667,51.3333333 L44.3333333,51.3333333 C44.3333333,52.2326389 44.5277778,53.1744792 44.9166667,54.1588542 C45.3055556,55.1432292 45.6944444,56.0060764 46.0833333,56.7473958 C46.4722222,57.4887153 46.6666667,58.0173611 46.6666667,58.3333333 C46.6666667,58.9652778 46.4357639,59.5121528 45.9739583,59.9739583 C45.5121528,60.4357639 44.9652778,60.6666667 44.3333333,60.6666667 L25.6666667,60.6666667 C25.0347222,60.6666667 24.4878472,60.4357639 24.0260417,59.9739583 C23.5642361,59.5121528 23.3333333,58.9652778 23.3333333,58.3333333 C23.3333333,57.9930556 23.5277778,57.4583333 23.9166667,56.7291667 C24.3055556,56 24.6944444,55.1493056 25.0833333,54.1770833 C25.4722222,53.2048611 25.6666667,52.2569444 25.6666667,51.3333333 L5.83333333,51.3333333 C4.22916667,51.3333333 2.85590278,50.7621528 1.71354167,49.6197917 C0.571180556,48.4774306 0,47.1041667 0,45.5 L0,5.83333333 C0,4.22916667 0.571180556,2.85590278 1.71354167,1.71354167 C2.85590278,0.571180556 4.22916667,0 5.83333333,0 L64.1666667,0 C65.7708333,0 67.1440972,0.571180556 68.2864583,1.71354167 C69.4288194,2.85590278 70,4.22916667 70,5.83333333 Z" id="Shape" fill="#4D4D4D" fill-rule="nonzero"></path>
                    <rect id="Rectangle-7" fill="#FFAF1D" x="7" y="8" width="16" height="26"></rect>
                    <rect id="Rectangle-7-Copy" fill="#00AAE3" x="27" y="8" width="34" height="5"></rect>
                    <rect id="Rectangle-7-Copy-2" fill="#00AAE3" x="27" y="15" width="34" height="5"></rect>
                    <rect id="Rectangle-7-Copy-3" fill="#00AAE3" x="27" y="22" width="34" height="5"></rect>
                    <rect id="Rectangle-7-Copy-4" fill="#00AAE3" x="27" y="29" width="34" height="5"></rect>
                </g>
            </g>
        </g>
    </g>
</svg>

<svg width="70" height="61" viewBox="0 0 70 61" xmlns="http://www.w3.org/2000/svg"><title>elearning</title><g fill="none" fill-rule="evenodd"><path d="M65.333 36.167V5.833c0-.316-.115-.59-.346-.82a1.121 1.121 0 0 0-.82-.346H5.833c-.316 0-.59.115-.82.346-.23.23-.346.504-.346.82v30.334c0 .316.115.59.346.82.23.23.504.346.82.346h58.334c.316 0 .59-.115.82-.346.23-.23.346-.504.346-.82zM70 5.833V45.5c0 1.604-.571 2.977-1.714 4.12-1.142 1.142-2.515 1.713-4.12 1.713H44.334c0 .9.195 1.841.584 2.826.389.984.777 1.847 1.166 2.588.39.742.584 1.27.584 1.586 0 .632-.231 1.18-.693 1.641-.462.462-1.009.693-1.64.693H25.666c-.632 0-1.18-.231-1.641-.693-.462-.462-.693-1.009-.693-1.64 0-.34.195-.876.584-1.605.389-.729.777-1.58 1.166-2.552.39-.972.584-1.92.584-2.844H5.833c-1.604 0-2.977-.57-4.12-1.713C.572 48.477 0 47.104 0 45.5V5.833c0-1.604.571-2.977 1.714-4.12C2.856.572 4.229 0 5.834 0h58.333c1.604 0 2.977.571 4.12 1.714C69.428 2.856 70 4.229 70 5.834z" fill="#4D4D4D" fill-rule="nonzero"/><path fill="#FFAF1D" d="M7 8h16v26H7z"/><path fill="#00AAE3" d="M27 8h34v5H27zM27 15h34v5H27zM27 22h34v5H27zM27 29h34v5H27z"/></g></svg>
